**kern	**dynam
*part1	*part1
*staff1	*
*I"Violino I	*
*I'Vn. I	*
*clefG2	*
*k[b-]	*
*F:	*
*M2/4	*
=	=
4ccc	f
.	.
.	.
16qqbb-/	.
8aaL	.
16ggL	.
16ffJJ	.
=	=
8.ddL	.
.	.
16ggJk	.
8qqff/	.
4ee	.
.	.
.	.
=	=
8ff	.
4ff	.
.	.
.	.
8ff#X	.
=	=
(16ggLL	.
16ff#X)	.
(16ddd	.
16cccJJ)	.
16qqccc/	.
8bb-L	.
16aaL	.
16ggJJ	.
=	=
8.ffTL	.
.	.
32eeLL	.
64ffL	.
64ggJJJJ	.
4ff`	.
.	.
=	=
4cc	p
.	.
.	.
16qqb-/	.
8aL	.
16gL	.
16fJJ	.
=	=
8.dL	.
.	.
16gJk	.
8qqf/	.
4e	.
.	.
=	=
8f	.
4f	.
.	.
.	.
8f#X	.
=	=
(16gLL	.
16f#X)	.
(16dd	.
16ccJJ)	.
16qqcc/	.
8b-L	.
16aL	.
16gJJ	.
=	=
4f	.
.	.
.	.
16qqgg/	f
16ffLL	.
32eeL	.
32ffJ	.
16aa	.
16ffJJ	.
!!pagebreak:original
*-	*-
